X:9
T:The Maid of Isla
R:strahspey
D:Cape Breton Fiddle and Piano Music, The Beaton Family of Mabou
O:19th century Scotland
N:setting comes from Donald Angus Beaton
B:Lowes (1840s)
Z:Paul Stewart Cranford (P.S.C.), <http://www.cranfordpub.com>
L:1/8
M:C
Q:300
K:A
A<Ae<c e>fe<c|A/A/A e>c f>e c2|A<Ae<c e>fe<c|[1f<ga>f e>cB<a:|[2f>ga<f e>c B2||
||Afe>c|af e<f c2|afe>c|f>ga<f e>c B2|
Afe>c|af e<f c2|ae|f<ga>f e>cB<a|]
